X: 13338
T: Flatbush
R: waltz
M: 3/4
K: Eminor
B3 c BA|G2 E2 E2|B3 e BG|A3c BA|GA Bc dB|AE A2 BA|G3 A FG|E6:|
g4 fe|f2 B2 B2|e2 d2 c2|B6|c4 BA|B2 e2 f2|g3 f ga|f6|
b4 ag|f2 B2 B2|e2 d2 c2|B6 AB|c4 BA|B2 G2 E2|GF GA FG|E6||

